X: 34212
T: Reel Saint-Antoine
R: reel
M: 4/4
K: Amajor
g|:a3 (a {b}ae)ce|a3 (a {b}ae)ce|agfe dcBA|GABG Eefg|
a3 (a {b}ae)ce|a3 (a {b}ae)ce|agfe dcBA|1 GABG Aefg:|2 GABG A3B|
|:c3(c {d}cB)ce|dcBA GABc|d3(d {e}dc)df|edcB AGAB|
c3(c {d}cB)ce|dcBA GABc|defg agfe|[M:3/2]dcBA GABG A3B:|
|:[M:C||cAA(A cA)AA|dcBA GABc|dBB(B dB)BB|edcB AGAB|
cAA(A cA)AA|dcBA GABc|defg agfe|
1[M:3/2]dcBA GABG A3B:|2 dcBA GABG A3||

